X: 24330
T: Lough Sheeling
R: waltz
M: 3/4
K: Eminor
B>^d|e2 (e>f) (ge)|d2B2 (GA/B/)|c2c2 (BA)|{A}B2 z2 B^d|
e2 (ef) (ge)|d2B2G2|A3 GE^D|E3 z||
(BA)|G2 (GA) (BG)|{B}A2G2 (GA/B/)|c2c2 (BA)|B2 z2 (B^d)|
e3 (fge)|d2B2G2|A3 GE^D|(E2 D)z||

